src/actions/22/mail-invitation.svg

<svg version="1.1" viewBox="0 0 22 22" xmlns="http://www.w3.org/2000/svg">
 <defs>
  <style id="current-color-scheme" type="text/css">.ColorScheme-Text {
        color:#363636;
      }</style>
 </defs>
 <path class="ColorScheme-Text" d="m16.505 11.018a3.5 3.5 0 0 0-3.5 3.5 3.5 3.5 0 0 0 3.5 3.5 3.5 3.5 0 0 0 3.5-3.5 3.5 3.5 0 0 0-3.5-3.5zm0 0.98242a2.5169 2.5169 0 0 1 2.5176 2.5176 2.5169 2.5169 0 0 1-0.87109 1.8984 3.5 3.5 0 0 0-1.6465-0.41602 3.5 3.5 0 0 0-1.6504 0.41406 2.5169 2.5169 0 0 1-0.86719-1.8965 2.5169 2.5169 0 0 1 2.5176-2.5176zm0 1a1 1 0 0 0-1 1 1 1 0 0 0 1 1 1 1 0 0 0 1-1 1 1 0 0 0-1-1z" fill="currentColor"/>
 <g class="ColorScheme-Text" fill="currentColor">
  <path d="m5 4c-1.662 0-3 1.338-3 3v8c0 1.662 1.338 3 3 3h7v-1h-7c-1.0692 0-1.9288-0.83294-1.9883-1.8867l4.5977-3.498 0.7207 0.54883c0.98774 0.7512 2.4021 0.98417 3.6699 0.72266v-0.90234c-0.95179 0.29872-2.0835 0.15256-2.8594-0.4375l-6.1289-4.6602c0.059506-1.0538 0.9191-1.8867 1.9883-1.8867v-1zm12 0v1c1.0692 0 1.9288 0.83294 1.9883 1.8867l-4.0938 3.1133h1.623l2.4824-1.8887v1.8887h1v-3c0-1.662-1.338-3-3-3zm-14 4.1094 3.8008 2.8906-3.8008 2.8887v-5.7793z"/>
  <g class="ColorScheme-Text" fill="currentColor">
   <path d="m7 1c-1.108 0-2 0.892-2 2v6.3711h1v-6.3711c0-0.554 0.446-1 1-1h8c0.554 0 1 0.446 1 1v6.3711h1v-6.3711c0-1.108-0.892-2-2-2h-8z"/>
   <rect x="7" y="4" width="8" height="1" ry=".5"/>
   <rect x="7" y="7" width="8" height="1" ry=".5"/>
  </g>
 </g>
</svg>

<svg xmlns="http://www.w3.org/2000/svg" viewBox="0 0 22 22">
    <defs>
        <style id="current-color-scheme" type="text/css">
            .ColorScheme-Text{color:#050505;opacity:.7}
        </style>
    </defs>
    <path fill="currentColor" d="M16.505 11.018a3.5 3.5 0 0 0-3.5 3.5 3.5 3.5 0 0 0 3.5 3.5 3.5 3.5 0 0 0 3.5-3.5 3.5 3.5 0 0 0-3.5-3.5zm0 .982a2.517 2.517 0 0 1 2.518 2.518 2.517 2.517 0 0 1-.871 1.898A3.5 3.5 0 0 0 16.505 16a3.5 3.5 0 0 0-1.65.414 2.517 2.517 0 0 1-.868-1.896A2.517 2.517 0 0 1 16.505 12zm0 1a1 1 0 0 0-1 1 1 1 0 0 0 1 1 1 1 0 0 0 1-1 1 1 0 0 0-1-1z" class="ColorScheme-Text"/>
    <g fill="currentColor" class="ColorScheme-Text">
        <path d="M5 4C3.338 4 2 5.338 2 7v8c0 1.662 1.338 3 3 3h7v-1H5a1.99 1.99 0 0 1-1.988-1.887l4.597-3.498.721.55c.988.75 2.402.983 3.67.722v-.903c-.952.3-2.083.153-2.86-.437l-6.128-4.66A1.99 1.99 0 0 1 5 5V4zm12 0v1a1.99 1.99 0 0 1 1.988 1.887L14.894 10h1.623L19 8.111V10h1V7c0-1.662-1.338-3-3-3zM3 8.11 6.8 11 3 13.889v-5.78z"/>
        <g class="ColorScheme-Text">
            <path d="M7 1c-1.108 0-2 .892-2 2v6.371h1V3c0-.554.446-1 1-1h8c.554 0 1 .446 1 1v6.371h1V3c0-1.108-.892-2-2-2H7z"/>
            <rect width="8" height="1" x="7" y="4" ry=".5"/>
            <rect width="8" height="1" x="7" y="7" ry=".5"/>
        </g>
    </g>
</svg>
